X:1
T: Airdrie Lassies
P: Play 3 times
R:Jig
Q:180
K:G
M:6/8
L:1/16
|:B2|G4B2 d2c2B2|d2e2f2 g2d2c2|B2G2B2 d2c2B2|c2B2c2 A4c2|
G4B2 d2c2B2|d2e2f2 g2d2c2|B2G2B2 d2c2B2|d2e2f2 g6|
b6 g6|a2^g2a2 f2=g2a2|g6e6|f2e2f2 d2e2f2|
b6g6|a2^g2a2 f2=g2a2|g6e6|d2e2f2 g4:|
